X: 1
T:Mazurka
R:Mazurka
M:3/4
O:France
K:G
G2gfg2|G2gfg2\
|1agfedc|BcdBG2:|2 f/2g/2a fde^c|d4B2||\
c2cBcA|B2BABG|A2AGAF|1G2E2B2:|2G6||
